X:1
T:Title
%%score 1 { 2 | 3 }
L:1/8
Q:1/4=85
M:2/4
K:Bb
V:1 treble nm="Grand Piano, Soprano"
V:2 bass nm="Choir Pad, When the Harvest Comes"
V:3 bass 
V:1
 [DF][DF] [Fd][DB] | [EG][DF] [B,D][DF] | [DB][CA] [DB][Ec] | [Fd] [DB]3 | [DF][DF] [Fd][DB] | %5
w: By~Edmund~Simon~Lorenz * * *|||||
 [EG][DF] [B,D][DF] | [FB][FA] [Fc][=EG] | [=Ec] F3 | F/F/ [FA]2 [FB]- | [FB] [Fc]3 | %10
w: |||||
 F/F/ [FB]2 [Fc]- | [Fc] [Fd]3 | [Fd][Ge] [Ge][Ge] | [Ge][Ge] [Fd][Ec] | [DB] [Ec]2 [CA]- | %15
w: |||||
 [CA] [DB]3- | [DB]4 |] %17
w: ||
V:2
 B,B, B,B, | B,B, F,F, | F,F, B,A, | A, B,3 | B,B, B,B, | B,B, F,B, | DC A,C | B,[K:bass] A,3 | %8
 A,/A,/C C[K:treble]D | D/D/E EE | A,/A,/B, B,A, | A,/A,/B, B,B, | B,B, B,B, | B,B, B,B, | %14
 B, G,2 F,- | F, F,3- | F,4 |] %17
V:3
 B,,B,, B,,B,, | B,,B,, B,,B,, | .B,,2 F,F, | F, B,,3 | B,,B,, B,,B,, | B,,B,, B,,B,, | %6
 B,,C, C,C, | C, F,3 | F,/F,/F, F,F, | F,/F,/F, F,F, | F,/F,/D, D,F, | F,<.F, z2 | z E, E,E, | %13
 .G,2 z2 | z .E,3 | z B,,3- | B,,4 |] %17

